img/settings.svg

<svg fill="none" height="16" viewBox="0 0 16 16" width="16" xmlns="http://www.w3.org/2000/svg"><path d="m7.99885 5.56113c-.48241 0-.95399.14305-1.3551.41107-.40111.26801-.71374.64895-.89835 1.09464s-.23291.93611-.1388 1.40925.32642.90775.66753 1.24887c.34112.34114.77573.57344 1.24887.66754s.96357.0458 1.40926-.1388.82662-.49725 1.09464-.89836c.268-.40111.4111-.87269.4111-1.3551-.002-.6463-.2596-1.26557-.71657-1.72258-.45701-.457-1.07628-.7146-1.72258-.71653zm5.26605 2.43911c-.0013.22791-.018.45547-.05.68113l1.4845 1.16223c.0647.05339.1082.12803.1229.2106.0147.0825-.0004.1676-.0427.24l-1.4043 2.4245c-.0427.0718-.1094.1262-.1882.1537-.0789.0275-.1649.0263-.2429-.0034l-1.7455-.7012c-.3635.2799-.7613.5121-1.1836.6912l-.261 1.8531c-.01461.083-.05759.1583-.1216.2132-.06401.0548-.14507.0857-.22933.0874h-2.80864c-.08273-.0016-.16248-.0312-.22621-.084-.06374-.0528-.1077-.1256-.12472-.2066l-.26098-1.8531c-.42354-.1769-.82157-.4096-1.18358-.6918l-1.74549.7013c-.07803.0297-.16403.0309-.24288.0035-.07885-.0275-.1455-.0818-.18824-.1535l-1.40432-2.4242c-.04227-.0724-.05741-.1575-.04272-.2401.01469-.08251.05825-.15715.12291-.21053l1.4845-1.16224c-.03166-.22907-.04836-.45995-.05-.69119.00127-.22791.01798-.45547.05-.68112l-1.4845-1.16224c-.06466-.05338-.10822-.12802-.12291-.21057s.00045-.16764.04272-.24005l1.40432-2.42448c.04269-.07177.10933-.12619.18818-.15369.07885-.02749.16488-.02629.24294.00338l1.74549.70124c.36346-.27988.76121-.51216 1.18358-.69118l.26098-1.85312c.01461-.083.05759-.15836.12159-.21319.06401-.05483.14507-.085735.22934-.087427h2.80864c.08273.00161.16247.031217.22621.083987.06373.05277.1077.12559.12472.20657l.261 1.85312c.424.17683.8226.40948 1.1851.69179l1.744-.70124c.078-.0297.164-.03094.2428-.00351.0789.02744.1455.08179.1883.15351l1.4043 2.42448c.0423.07241.0574.1575.0427.24005s-.0582.15719-.1229.21058l-1.4845 1.16223c.0316.22897.0483.45975.05.69088z" fill="#008699"/></svg>

<svg width="16" height="16" viewBox="0 0 16 16" fill="none" xmlns="http://www.w3.org/2000/svg">
<g clip-path="url(#clip0_4539_38107)">
<path d="M8.00666 5.56162C7.52425 5.56162 7.05267 5.70467 6.65156 5.97268C6.25045 6.2407 5.93782 6.62163 5.75321 7.06732C5.5686 7.51301 5.5203 8.00344 5.61441 8.47658C5.70853 8.94972 5.94083 9.38433 6.28195 9.72545C6.62306 10.0666 7.05767 10.2989 7.53081 10.393C8.00395 10.4871 8.49438 10.4388 8.94007 10.2542C9.38576 10.0696 9.7667 9.75694 10.0347 9.35583C10.3027 8.95472 10.4458 8.48314 10.4458 8.00073C10.4438 7.35443 10.1862 6.73516 9.72924 6.27815C9.27224 5.82115 8.65296 5.56355 8.00666 5.56162ZM13.2727 8.00073C13.2714 8.22864 13.2547 8.4562 13.2227 8.68185L14.7072 9.84409C14.7719 9.89748 14.8154 9.97212 14.8301 10.0547C14.8448 10.1372 14.8297 10.2223 14.7874 10.2947L13.3831 12.7192C13.3404 12.791 13.2738 12.8454 13.1949 12.8729C13.116 12.9004 13.03 12.8992 12.952 12.8695L11.2065 12.1683C10.843 12.4481 10.4453 12.6804 10.0229 12.8594L9.76191 14.7126C9.7473 14.7956 9.70432 14.8709 9.64031 14.9258C9.57631 14.9806 9.49524 15.0115 9.41098 15.0132H6.60234C6.51961 15.0116 6.43987 14.982 6.37613 14.9292C6.31239 14.8764 6.26843 14.8036 6.25141 14.7226L5.99043 12.8695C5.5669 12.6926 5.16886 12.4599 4.80685 12.1777L3.06136 12.879C2.98333 12.9087 2.89733 12.9099 2.81848 12.8825C2.73963 12.855 2.67298 12.8007 2.63024 12.729L1.22592 10.3048C1.18365 10.2324 1.16851 10.1473 1.1832 10.0647C1.19789 9.98218 1.24145 9.90754 1.30611 9.85415L2.79062 8.69192C2.75895 8.46285 2.74225 8.23197 2.74061 8.00073C2.74188 7.77282 2.75859 7.54526 2.79062 7.31961L1.30611 6.15737C1.24145 6.10399 1.19789 6.02935 1.1832 5.9468C1.16851 5.86424 1.18365 5.77916 1.22592 5.70675L2.63024 3.28227C2.67293 3.21049 2.73957 3.15608 2.81842 3.12858C2.89728 3.10109 2.9833 3.10228 3.06136 3.13196L4.80685 3.8332C5.17031 3.55332 5.56806 3.32104 5.99043 3.14202L6.25141 1.2889C6.26602 1.2059 6.309 1.13054 6.37301 1.07571C6.43701 1.02087 6.51808 0.989973 6.60234 0.988281H9.41098C9.49371 0.989892 9.57345 1.0195 9.63719 1.07227C9.70093 1.12504 9.74489 1.19786 9.76191 1.27884L10.0229 3.13196C10.447 3.30878 10.8455 3.54144 11.208 3.82375L12.952 3.12251C13.03 3.09281 13.116 3.09157 13.1948 3.119C13.2737 3.14644 13.3403 3.20079 13.3831 3.27251L14.7874 5.69699C14.8297 5.7694 14.8448 5.85449 14.8301 5.93704C14.8154 6.01959 14.7719 6.09423 14.7072 6.14762L13.2227 7.30985C13.2544 7.53882 13.2711 7.7696 13.2727 8.00073Z" fill="#1C8AA9"/>
</g>
<defs>
<clipPath id="clip0_4539_38107">
<rect width="16" height="16" fill="white" transform="translate(0.0078125 0.000976562)"/>
</clipPath>
</defs>
</svg>
